public/gfx/icons/analytics.svg

<svg xmlns="http://www.w3.org/2000/svg" xmlns:xlink="http://www.w3.org/1999/xlink" width="24" height="24" viewBox="0 0 24 24">
  <defs>
    <path id="analytics-a" d="M19.4303633,4.59294694 L17.899116,3.43906931 L21.9999231,2 L21.7469365,6.33861004 L20.2247802,5.19158302 L15.1594735,11.4877614 C14.987926,11.7009949 14.6768262,11.7366926 14.4614378,11.5678587 L9.52993767,7.7022635 C9.33908289,7.55266047 9.06839188,7.56157601 8.88779476,7.72341326 L2.83462869,13.1477952 C2.63104499,13.3302313 2.3186848,13.3153484 2.13336889,13.1143826 L2.1295396,13.1102299 C1.94583945,12.9110163 1.95841559,12.6006034 2.15762919,12.4169032 C2.15955496,12.4151274 2.16149492,12.4133671 2.16344889,12.4116223 L8.88668852,6.40830878 C9.06784306,6.24655231 9.33903589,6.23836333 9.52962032,6.38889473 L14.3298196,10.180289 C14.5456629,10.3507709 14.858673,10.314906 15.0303606,10.1000206 L19.4303633,4.59294694 Z M3.50003534,16.5 C3.77619723,16.5 4.00007068,16.7238734 4.00007068,17.0000353 L4.00007068,20.4999647 C4.00007068,20.7761266 3.77619723,21 3.50003534,21 C3.22387345,21 3,20.7761266 3,20.4999647 L3,17.0000353 C3,16.7238734 3.22387345,16.5 3.50003534,16.5 Z M9.16225399,13 C9.43841588,13 9.66228933,13.2238734 9.66228933,13.5000353 L9.66228933,20.4999647 C9.66228933,20.7761266 9.43841588,21 9.16225399,21 C8.8860921,21 8.66221865,20.7761266 8.66221865,20.4999647 L8.66221865,13.5000353 C8.66221865,13.2238734 8.8860921,13 9.16225399,13 Z M14.8304752,15 C15.1066371,15 15.3305105,15.2238734 15.3305105,15.5000353 L15.3305105,20.4999647 C15.3305105,20.7761266 15.1066371,21 14.8304752,21 C14.5543133,21 14.3304399,20.7761266 14.3304399,20.4999647 L14.3304399,15.5000353 C14.3304399,15.2238734 14.5543133,15 14.8304752,15 Z M20.4986964,10 C20.7748583,10 20.9987317,10.2238734 20.9987317,10.5000353 L20.9987317,20.4999647 C20.9987317,20.7761266 20.7748583,21 20.4986964,21 C20.2225345,21 19.9986611,20.7761266 19.9986611,20.4999647 L19.9986611,10.5000353 C19.9986611,10.2238734 20.2225345,10 20.4986964,10 Z"/>
  </defs>
  <g fill="none" fill-rule="evenodd">
    <use fill="#FFFFFF" xlink:href="#analytics-a"/>
  </g>
</svg>

<?xml version="1.0" encoding="UTF-8"?>
<svg viewBox="0 0 24 24" 
  xmlns="http://www.w3.org/2000/svg" 
  xmlns:xlink="http://www.w3.org/1999/xlink">
  <defs>
    <path id="a" d="m19.43 4.5929l-1.5312-1.1539 4.1008-1.4391-0.25299 4.3386-1.5222-1.147-5.0653 6.2962c-0.17155 0.21323-0.48265 0.24893-0.69804 0.080097l-4.9315-3.8656c-0.19085-0.1496-0.46155-0.14069-0.64214 0.02115l-6.0532 5.4244c-0.20358 0.18244-0.51594 0.16755-0.70126-0.033413l-0.0038293-0.0041527c-0.1837-0.19921-0.17112-0.50963 0.02809-0.69333 0.0019258-0.0017758 0.0038657-0.0035361 0.0058197-0.0052809l6.7232-6.0033c0.18115-0.16176 0.45235-0.16995 0.64293-0.019414l4.8002 3.7914c0.21584 0.17048 0.52885 0.13462 0.70054-0.080268l4.4-5.5071zm-15.93 11.907c0.27616 0 0.50004 0.22387 0.50004 0.50004v3.4999c0 0.27616-0.22387 0.50004-0.50004 0.50004s-0.50004-0.22387-0.50004-0.50004v-3.4999c0-0.27616 0.22387-0.50004 0.50004-0.50004zm5.6622-3.5c0.27616 0 0.50004 0.22387 0.50004 0.50004v6.9999c0 0.27616-0.22387 0.50004-0.50004 0.50004s-0.50004-0.22387-0.50004-0.50004v-6.9999c0-0.27616 0.22387-0.50004 0.50004-0.50004zm5.6682 2c0.27616 0 0.50004 0.22387 0.50004 0.50004v4.9999c0 0.27616-0.22387 0.50004-0.50004 0.50004s-0.50004-0.22387-0.50004-0.50004v-4.9999c0-0.27616 0.22387-0.50004 0.50004-0.50004zm5.6682-5c0.27616 0 0.50004 0.22387 0.50004 0.50004v9.9999c0 0.27616-0.22387 0.50004-0.50004 0.50004s-0.50004-0.22387-0.50004-0.50004v-9.9999c0-0.27616 0.22387-0.50004 0.50004-0.50004z"/>
  </defs>
  <g fill="none" fill-rule="evenodd">
    <use fill="#000000" xlink:href="#a"/>
  </g>
</svg>
